svg/u1f33e.svg

<svg viewBox="0 0 128 128" xmlns="http://www.w3.org/2000/svg">
  <path d="M51.9,100.22l-9.93-19.58c0,0-1.68-11.01-0.56-25.59c0.98-12.72,3.45-21.67,10.06-29.64 c5.13-6.18,13.29-12.45,21.4-15.39s8.95-3.08,8.95-2.1S69.1,14.65,60.29,26.95S51.9,51,51.34,58.69S51.9,100.22,51.9,100.22z" fill="#717F35"/>
  <path d="M19.46,48.21c5.34,9.57,10.41,27.44,16.26,40.92c5.45,12.58,11.15,22.28,16.18,27.03 s9.62,4.33,11.61,2.66c2.99-2.52,1.42-9.51,1.4-13.56c-0.04-7.24,1.34-12.24,3.5-15.94c1.9-3.25,5.46-6.55,9.23-5.42 c4.53,1.36,7.55,5.84,8.95,7.94c1.4,2.1,3.5,6.29,4.47,6.29s-0.62-10.81-5.23-17.15c-4.56-6.27-11.11-7.5-16.99-4.94 c-13.13,5.72-13.5,23.08-13.5,23.08s-8.32-7.01-14.05-25.32c-1.4-4.47-5.8-20.35-10.17-26.83C24.4,37,17.22,34.92,13.17,33.52 c-4.05-1.4-8.95-2.8-9.09-1.96C3.94,32.41,13.45,37.44,19.46,48.21z" fill="#94A61D"/>
  <path d="M59.44,105.59c-0.4-2.78-1.66-10.05-1.16-19.18c0.34-6.35,2.09-16.9,11.71-20.36 c7.74-2.78,13.78-2.81,22.02,1.15c7.64,3.67,3.96-1.23,0.37-3.09c-2.49-1.29-13.1-6.65-23.61-3.08 c-12.22,4.15-15.48,18.75-15.48,18.75s-0.89-15.88,2.38-23.71c3.27-7.84,9.15-14.25,7.54-14.78c-0.6-0.2-8.02,2.83-12.2,12.4 c-4.46,10.22-4.66,19.45-4.37,24.71s1.04,10.43,1.04,10.43s2.08,4.83,4.53,7.96C54.48,99.7,59.56,106.44,59.44,105.59z" fill="#FFBD13"/>
  <path d="M67.23,26.85c-0.49-0.1-5.69,1.9-8.31,8.18c-2.62,6.28-0.39,11.46-0.39,11.46s7-6.09,8.31-9.88 C68.15,32.81,67.89,26.98,67.23,26.85z" fill="#FFBD13"/>
  <path d="M80.33,44.65c0.07-0.32-5.3-4.84-9.43-4.91c-4.12-0.07-9.16,3.47-9.16,3.47s1.72,4.12,8.25,4.84 C74.7,48.58,80.2,45.24,80.33,44.65z" fill="#FFBD13"/>
  <path d="M69.2,37.06c0.46,0.39,5.76-0.2,8.83-3.83c3.23-3.82,3.28-12.47,2.3-12.47 c-1.17,0-1.96,1.24-3.99,2.49c-2.03,1.24-5.76,4.91-6.74,7.72C68.61,33.79,68.74,36.67,69.2,37.06z" fill="#FFBD13"/>
  <path d="M74.41,37.68c0.11,1.16,4.21,4.99,8.76,5.19c4.55,0.2,8.57-1.52,8.57-2.2s-2.9-5.77-7.93-6.27 C78.37,33.87,74.36,37.15,74.41,37.68z" fill="#FFBD13"/>
  <path d="M81.11,32.74c0.54,0.93,6.8-0.24,9.74-4.26c2.71-3.7,2.2-7.88,1.91-8.42 c-0.29-0.54-4.65-0.1-8.13,3.92C81.75,27.31,80.62,31.88,81.11,32.74z" fill="#FFBD13"/>
  <path d="M87.62,32.74c-0.03,0.88,2.59,4.46,5.58,5.83c4.5,2.06,10.23,0.83,10.48,0.05 c0.24-0.78-2.45-6.06-6.07-7.64C93.35,29.12,87.67,31.32,87.62,32.74z" fill="#FFBD13"/>
  <path d="M94.04,28.72c0,1.18,7.05,0.98,9.55-0.73c2.5-1.71,5.09-6.32,5.68-6.95s0.69-1.27-0.59-1.66 c-1.27-0.39-7.54-0.59-11.16,2.11S94.04,28.48,94.04,28.72z" fill="#FFBD13"/>
  <path d="M101.97,30.29c-0.65,0.37,0.34,1.62,0.83,2.64c0.49,1.03,2.15,5.19,5.78,7 c3.47,1.73,8.18,1.62,8.37,1.37c0.2-0.24-0.82-6.06-4.36-8.71C108.28,29.36,103.19,29.61,101.97,30.29z" fill="#FFBD13"/>
  <path d="M107.3,28.04c0.12,0.57,4.9,3.08,8.96,3.43s8.08-3.72,8.13-4.16s-3.67-4.41-7.88-4.26 C110.98,23.24,107.16,27.35,107.3,28.04z" fill="#FFBD13"/>
  <path d="M89.39,49.68c-0.08-0.93-7.69-1.08-11.55,2.94c-3.87,4.01-3.97,7.83-3.97,7.83l2.79,1.81 c0,0,5.34-2.35,8.22-5.14C88.24,53.87,89.48,50.8,89.39,49.68z" fill="#FFBD13"/>
  <path d="M82.46,75.52c1.23,0.05,0.98-5.14-0.2-8.37c-1.25-3.43-4.55-5.87-4.55-5.87l-4.11,0.88 c0,0,0.09,4.07,2.07,7.6C78.3,74.42,81.33,75.47,82.46,75.52z" fill="#FFBD13"/>
  <path d="M83.61,62.99c0,0-0.41,4.19,1.52,8.08c2.01,4.06,6.41,6.41,7.39,6.02c0.98-0.39,0.49-5.34-0.15-7.69 c-0.64-2.35-3.57-6.02-3.57-6.02L83.61,62.99z" fill="#FFBD13"/>
  <path d="M83.07,60.94c0,0,3.13-5.09,6.95-6.66c5.45-2.24,12.39,0.54,12.43,1.57c0.05,1.03-4.7,4.5-7.05,5.39 c-2.35,0.88-7.15,1.71-7.15,1.71L83.07,60.94z" fill="#FFBD13"/>
  <path d="M102.65,61.08c-4.16,0.18-8.27,2.55-8.37,3.87c-0.1,1.32,3.57,4.26,8.71,4.26 c5.14,0,8.32-3.43,8.32-3.92C111.32,64.8,108.38,60.84,102.65,61.08z" fill="#FFBD13"/>
  <path d="M95.51,66.78c-1.09-0.2-2.25,5.34-0.39,9.74c1.86,4.41,6.85,6.61,7.25,6.76 c1.28,0.48,0.93-7.34-0.59-10.53C100.39,69.85,97.07,67.08,95.51,66.78z" fill="#FFBD13"/>
  <path d="M102.65,70.67c-0.43,0.75,0.54,5.78,2.79,8.71c3.52,4.6,8.86,4.94,9.4,4.7s-0.1-7.25-3.52-10.57 C108.03,70.32,103.04,69.98,102.65,70.67z" fill="#FFBD13"/>
</svg>

<svg viewBox="0 0 128 128" xmlns="http://www.w3.org/2000/svg">
  <defs/>
  <path d="M51.9,100.22 L41.97,80.64 C41.97,80.64 40.29,69.63 41.41,55.05 C42.39,42.33 44.86,33.38 51.47,25.41 C56.6,19.23 64.76,12.96 72.87,10.02 C80.98,7.08 81.82,6.94 81.82,7.92 C81.82,8.9 69.1,14.65 60.29,26.95 C51.48,39.25 51.9,51 51.34,58.69 C50.78,66.38 51.9,100.22 51.9,100.22 Z" fill="#717F35"/>
  <path d="M19.46,48.21 C24.8,57.78 29.87,75.65 35.72,89.13 C41.17,101.71 46.87,111.41 51.9,116.16 C56.93,120.91 61.52,120.49 63.51,118.82 C66.5,116.3 64.93,109.31 64.91,105.26 C64.87,98.02 66.25,93.02 68.41,89.32 C70.31,86.07 73.87,82.77 77.64,83.9 C82.17,85.26 85.19,89.74 86.59,91.84 C87.99,93.94 90.09,98.13 91.06,98.13 C92.03,98.13 90.44,87.32 85.83,80.98 C81.27,74.71 74.72,73.48 68.84,76.04 C55.71,81.76 55.34,99.12 55.34,99.12 C55.34,99.12 47.02,92.11 41.29,73.8 C39.89,69.33 35.49,53.45 31.12,46.97 C24.4,37 17.22,34.92 13.17,33.52 C9.12,32.12 4.22,30.72 4.08,31.56 C3.94,32.41 13.45,37.44 19.46,48.21 Z" fill="#94A61D"/>
  <path d="M59.44,105.59 C59.04,102.81 57.78,95.54 58.28,86.41 C58.62,80.06 60.37,69.51 69.99,66.05 C77.73,63.27 83.77,63.24 92.01,67.2 C99.65,70.87 95.97,65.97 92.38,64.11 C89.89,62.82 79.28,57.46 68.77,61.03 C56.55,65.18 53.29,79.78 53.29,79.78 C53.29,79.78 52.4,63.9 55.67,56.07 C58.94,48.23 64.82,41.82 63.21,41.29 C62.61,41.09 55.19,44.12 51.01,53.69 C46.55,63.91 46.35,73.14 46.64,78.4 C46.93,83.66 47.68,88.83 47.68,88.83 C47.68,88.83 49.76,93.66 52.21,96.79 C54.48,99.7 59.56,106.44 59.44,105.59 Z" fill="#FFBD13"/>
  <path d="M67.23,26.85 C66.74,26.75 61.54,28.75 58.92,35.03 C56.3,41.31 58.53,46.49 58.53,46.49 C58.53,46.49 65.53,40.4 66.84,36.61 C68.15,32.81 67.89,26.98 67.23,26.85 Z" fill="#FFBD13"/>
  <path d="M80.33,44.65 C80.4,44.33 75.03,39.81 70.9,39.74 C66.78,39.67 61.74,43.21 61.74,43.21 C61.74,43.21 63.46,47.33 69.99,48.05 C74.7,48.58 80.2,45.24 80.33,44.65 Z" fill="#FFBD13"/>
  <path d="M69.2,37.06 C69.66,37.45 74.96,36.86 78.03,33.23 C81.26,29.41 81.31,20.76 80.33,20.76 C79.16,20.76 78.37,22 76.34,23.25 C74.31,24.49 70.58,28.16 69.6,30.97 C68.61,33.79 68.74,36.67 69.2,37.06 Z" fill="#FFBD13"/>
  <path d="M74.41,37.68 C74.52,38.84 78.62,42.67 83.17,42.87 C87.72,43.07 91.74,41.35 91.74,40.67 C91.74,39.99 88.84,34.9 83.81,34.4 C78.37,33.87 74.36,37.15 74.41,37.68 Z" fill="#FFBD13"/>
  <path d="M81.11,32.74 C81.65,33.67 87.91,32.5 90.85,28.48 C93.56,24.78 93.05,20.6 92.76,20.06 C92.47,19.52 88.11,19.96 84.63,23.98 C81.75,27.31 80.62,31.88 81.11,32.74 Z" fill="#FFBD13"/>
  <path d="M87.62,32.74 C87.59,33.62 90.21,37.2 93.2,38.57 C97.7,40.63 103.43,39.4 103.68,38.62 C103.92,37.84 101.23,32.56 97.61,30.98 C93.35,29.12 87.67,31.32 87.62,32.74 Z" fill="#FFBD13"/>
  <path d="M94.04,28.72 C94.04,29.9 101.09,29.7 103.59,27.99 C106.09,26.28 108.68,21.67 109.27,21.04 C109.86,20.41 109.96,19.77 108.68,19.38 C107.41,18.99 101.14,18.79 97.52,21.49 C93.9,24.19 94.04,28.48 94.04,28.72 Z" fill="#FFBD13"/>
  <path d="M101.97,30.29 C101.32,30.66 102.31,31.91 102.8,32.93 C103.29,33.96 104.95,38.12 108.58,39.93 C112.05,41.66 116.76,41.55 116.95,41.3 C117.15,41.06 116.13,35.24 112.59,32.59 C108.28,29.36 103.19,29.61 101.97,30.29 Z" fill="#FFBD13"/>
  <path d="M107.3,28.04 C107.42,28.61 112.2,31.12 116.26,31.47 C120.32,31.82 124.34,27.75 124.39,27.31 C124.44,26.87 120.72,22.9 116.51,23.05 C110.98,23.24 107.16,27.35 107.3,28.04 Z" fill="#FFBD13"/>
  <path d="M89.39,49.68 C89.31,48.75 81.7,48.6 77.84,52.62 C73.97,56.63 73.87,60.45 73.87,60.45 L76.66,62.26 C76.66,62.26 82,59.91 84.88,57.12 C88.24,53.87 89.48,50.8 89.39,49.68 Z" fill="#FFBD13"/>
  <path d="M82.46,75.52 C83.69,75.57 83.44,70.38 82.26,67.15 C81.01,63.72 77.71,61.28 77.71,61.28 L73.6,62.16 C73.6,62.16 73.69,66.23 75.67,69.76 C78.3,74.42 81.33,75.47 82.46,75.52 Z" fill="#FFBD13"/>
  <path d="M83.61,62.99 C83.61,62.99 83.2,67.18 85.13,71.07 C87.14,75.13 91.54,77.48 92.52,77.09 C93.5,76.7 93.01,71.75 92.37,69.4 C91.73,67.05 88.8,63.38 88.8,63.38 L83.61,62.99 Z" fill="#FFBD13"/>
  <path d="M83.07,60.94 C83.07,60.94 86.2,55.85 90.02,54.28 C95.47,52.04 102.41,54.82 102.45,55.85 C102.5,56.88 97.75,60.35 95.4,61.24 C93.05,62.12 88.25,62.95 88.25,62.95 L83.07,60.94 Z" fill="#FFBD13"/>
  <path d="M102.65,61.08 C98.49,61.26 94.38,63.63 94.28,64.95 C94.18,66.27 97.85,69.21 102.99,69.21 C108.13,69.21 111.31,65.78 111.31,65.29 C111.32,64.8 108.38,60.84 102.65,61.08 Z" fill="#FFBD13"/>
  <path d="M95.51,66.78 C94.42,66.58 93.26,72.12 95.12,76.52 C96.98,80.93 101.97,83.13 102.37,83.28 C103.65,83.76 103.3,75.94 101.78,72.75 C100.39,69.85 97.07,67.08 95.51,66.78 Z" fill="#FFBD13"/>
  <path d="M102.65,70.67 C102.22,71.42 103.19,76.45 105.44,79.38 C108.96,83.98 114.3,84.32 114.84,84.08 C115.38,83.84 114.74,76.83 111.32,73.51 C108.03,70.32 103.04,69.98 102.65,70.67 Z" fill="#FFBD13"/>
</svg>
